X: 25
T: The Black Slender Boy
M: 3/4
L: 1/8
B: "O'Neill's 25"
N: "Tenderly" "2nd Setting"
Z: "Transcribed by Norbert Paap, norbertp@bdu.uva.nl"
K:G
G/2-A/2 Bc \
| d>-g (g/2f/2d/2c/2) Bc/2-A/2 \
| B>A GF/2-G/2 (A/2B/2c/2A/2) \
| d-g (g/2f/2d/2 c/2) A>-G \
| G3 G/2-A/2 Bc |
d-g (g/2f/2d/2c/2) Bc/2-A/2 \
| B>-A GF/2-G/2 (A/2B/2c/2A/2) \
| dg (d/2f/2d/2c/2) A>G \
| G3 ||
B/2-c/2 dd \
| b2 ab/2-a/2 g/2-f/2b/2-a/2 \
| g>f d-c dd/2-e/2 \
| =f-a (g/2f/2d/2c/2) d/2-g/2^f/2-a/2 \
| g2 (9(G/4A/4B/4c/4d/4e/4f/4g/4a/4) b-a |
g-a (3(b/2a/2g/2) (3(f/2d/2c/2) Bc/2-A/2 \
| B>G GF-G (A/2B/2c/2A/2) \
| dg g/2- f/2d/2c/2 A>G \
| G3 ||


